X:619
T: Gundeng gunlai liangtangtang
N: C2137
O: China, Hubei Songsi
S: I, 378]
R: Xiaodiao, Dengdiao, Fangxiandiao Jiuliandeng]
M: 2/4
L: 1/16
K: A
A2ABecc2 | B2cBABF2 | A2ABecc2 | B2cBABF2
F2A2F2A2 | ABc2c2c2 | BcA2B6F2
F2FcBcBA | FAE4F2 | A3cBAF2 | E8
F2c2BcBA | FAE4F2 | A3cBAF2 | E8
A3Becc2 | BcA2B3c | A3Becc2 | BcA2B6F2
F2c2BcBA | FAE4F2 | A4B4 | ceF2E2F2 | E8

